X:1
T:The Bard of Armagh  "Arranged by Terry Tully"
M:6/8
L:1/8
Q:80
C:Traditional Irish
S:Air
K:HP
|: {g}A | \
{Gdc}d3/2{g}cd/2{gef}e3/2ag/2 | \
{a}fde{gcd}c3/2B/2{G}A |
{Gdc}d3/2{g}cd/2{gef}ea3/2g/2 | \
{a}fdf{gef}e2{g}A{Gdc}d3/2{g}cd/2{gef}e3/2ag/2 | \
{a}fde{gcd}c3/2B/2{G}A |
{Gdc}d3/2{g}cd/2{gef}ea3/2g/2 | \
{a}fde{Gdc}d2 :: \
{gf}g |
{ag}a3/2g/2{a}f{gf}g3/2ag/2 | \
{a}fde{gcd}c3/2B/2{G}A | \
{ag}a3/2g/2{a}f{gf}ga3/2g/2 |
{a}fdf{gef}e2{gf}g{ag}a3/2g/2{a}f{gf}g3/2ag/2 | \
{a}fde{gcd}c3/2B/2{G}A | \
{Gdc}d3/2{g}cd/2{gef}ea3/2g/2 |
{a}fde{Gdc}d2 :|
